src/assets/svg/icons/fa/nuevos/classic/light/face-swear classic light.svg

<svg xmlns="http://www.w3.org/2000/svg" viewBox="0 0 640 512"><!--! Font Awesome Pro 6.4.0 by @fontawesome - https://fontawesome.com License - https://fontawesome.com/license (Commercial License) Copyright 2023 Fonticons, Inc. --><path d="M534.7 192C507.2 99.5 421.5 32 320 32S132.8 99.5 105.3 192H72.1C100.5 81.6 200.7 0 320 0S539.5 81.6 567.9 192H534.7zM264.4 176c0 13.3-10.7 24-24 24s-24-10.7-24-24c0-8.1 4-15.3 10.2-19.6l-39.6-13.2c-8.4-2.8-12.9-11.9-10.1-20.2s11.9-12.9 20.2-10.1l96 32c8.4 2.8 12.9 11.9 10.1 20.2s-11.9 12.9-20.2 10.1l-19.7-6.6c.8 2.3 1.2 4.8 1.2 7.4zm136 24c-13.3 0-24-10.7-24-24c0-2.7 .4-5.3 1.3-7.7l-20.6 6.9c-8.4 2.8-17.4-1.7-20.2-10.1s1.7-17.4 10.1-20.2l96-32c8.4-2.8 17.4 1.7 20.2 10.1s-1.7 17.4-10.1 20.2l-39.1 13c6.3 4.3 10.4 11.6 10.4 19.8c0 13.3-10.7 24-24 24zM32 288V448c0 17.7 14.3 32 32 32H576c17.7 0 32-14.3 32-32V288c0-17.7-14.3-32-32-32H64c-17.7 0-32 14.3-32 32zM0 288c0-35.3 28.7-64 64-64H576c35.3 0 64 28.7 64 64V448c0 35.3-28.7 64-64 64H64c-35.3 0-64-28.7-64-64V288zm400 64H384v32h16c8.8 0 16 7.2 16 16s-7.2 16-16 16H384v16c0 8.8-7.2 16-16 16s-16-7.2-16-16V416H320v16c0 8.8-7.2 16-16 16s-16-7.2-16-16V416H272c-8.8 0-16-7.2-16-16s7.2-16 16-16h16V352H272c-8.8 0-16-7.2-16-16s7.2-16 16-16h16V304c0-8.8 7.2-16 16-16s16 7.2 16 16v16h32V304c0-8.8 7.2-16 16-16s16 7.2 16 16v16h16c8.8 0 16 7.2 16 16s-7.2 16-16 16zm-80 0v32h32V352H320zm250.4-52.1c6.7 5.8 7.5 15.9 1.7 22.6l-96 112c-5.8 6.7-15.8 7.5-22.6 1.7s-7.5-15.8-1.7-22.6l96-112c5.8-6.7 15.8-7.5 22.6-1.7zM448 320a24 24 0 1 1 48 0 24 24 0 1 1 -48 0zm104 72a24 24 0 1 1 0 48 24 24 0 1 1 0-48zM208 288c8.8 0 16 7.2 16 16v64c0 8.8-7.2 16-16 16s-16-7.2-16-16V304c0-8.8 7.2-16 16-16zM184 424a24 24 0 1 1 48 0 24 24 0 1 1 -48 0zM128 304v1.8c4.6 .8 8.7 1.7 12.1 2.6c8.5 2.3 13.6 11 11.3 19.6s-11 13.6-19.6 11.3c-7.9-2.1-18.5-3.9-26.8-2.9c-4.1 .5-6.3 1.4-7.4 2.2c-.6 .4-1.2 .9-1.5 2.9c-.2 1-.1 1.6-.1 1.8c.1 .1 .5 .6 1.5 1.3c3.7 2.5 9.6 4.4 19.2 7.3l.7 .2c8 2.4 19.1 5.8 27.6 11.9c4.7 3.4 9.3 8.2 12.1 14.7c2.9 6.6 3.4 13.8 2.2 21.1c-2 11.5-7.9 20.5-17 25.9c-4.9 3-10.1 4.6-15.3 5.4v.8c0 8.8-7.2 16-16 16s-16-7.2-16-16v-3c-8.1-1.9-15.3-4.2-20.2-5.9c-8.4-2.8-12.9-11.9-10.1-20.2s11.9-12.9 20.2-10.1c9.5 3.2 21.9 6.9 32 7.1c5 .1 7.6-.8 8.8-1.5l0 0c.5-.3 1.4-.9 2-4c.2-1.2 .2-1.9 .2-2.3c0-.4-.1-.6-.1-.6l0 0c0-.1-.3-.6-1.6-1.6c-3.5-2.5-9.3-4.6-18.7-7.4L106 382l0 0c-7.7-2.3-18.3-5.5-26.4-11c-4.7-3.2-9.4-7.7-12.4-14.1c-3.1-6.5-3.7-13.7-2.5-20.9c1.8-10.2 7-18.1 14.5-23.5c5.3-3.8 11.2-5.9 16.9-7V304c0-8.8 7.2-16 16-16s16 7.2 16 16zM96.1 343.4s0 0 0-.1l0 .1c0 0 0 0 0 0z"/></svg>

<svg xmlns="http://www.w3.org/2000/svg" viewBox="0 0 640 512"><path d="M534.7 192C507.2 99.47 421.5 32 320 32C218.5 32 132.8 99.47 105.3 192H72.07C100.5 81.59 200.7 0 320 0C439.3 0 539.5 81.59 567.9 192H534.7zM264.4 176C264.4 189.3 253.6 200 240.4 200C227.1 200 216.4 189.3 216.4 176C216.4 167.9 220.4 160.7 226.5 156.4L186.9 143.2C178.6 140.4 174 131.3 176.8 122.9C179.6 114.6 188.7 110 197.1 112.8L293.1 144.8C301.4 147.6 305.1 156.7 303.2 165.1C300.4 173.4 291.3 177.1 282.9 175.2L263.2 168.6C263.1 170.9 264.4 173.4 264.4 176H264.4zM376.4 176C376.4 173.3 376.8 170.7 377.6 168.3L357.1 175.2C348.7 177.1 339.6 173.4 336.8 165.1C334 156.7 338.6 147.6 346.9 144.8L442.9 112.8C451.3 110 460.4 114.6 463.2 122.9C465.1 131.3 461.4 140.4 453.1 143.2L413.1 156.2C420.2 160.5 424.4 167.8 424.4 176C424.4 189.3 413.6 200 400.4 200C387.1 200 376.4 189.3 376.4 176H376.4zM384 352V384H400C408.8 384 416 391.2 416 400C416 408.8 408.8 416 400 416H384V432C384 440.8 376.8 448 368 448C359.2 448 352 440.8 352 432V416H320V432C320 440.8 312.8 448 304 448C295.2 448 288 440.8 288 432V416H272C263.2 416 256 408.8 256 400C256 391.2 263.2 384 272 384H288V352H272C263.2 352 256 344.8 256 336C256 327.2 263.2 320 272 320H288V304C288 295.2 295.2 288 304 288C312.8 288 320 295.2 320 304V320H352V304C352 295.2 359.2 288 368 288C376.8 288 384 295.2 384 304V320H400C408.8 320 416 327.2 416 336C416 344.8 408.8 352 400 352H384zM320 384H352V352H320V384zM570.4 299.9C577.1 305.6 577.9 315.7 572.1 322.4L476.1 434.4C470.4 441.1 460.3 441.9 453.6 436.1C446.9 430.4 446.1 420.3 451.9 413.6L547.9 301.6C553.6 294.9 563.7 294.1 570.4 299.9V299.9zM496 320C496 333.3 485.3 344 472 344C458.7 344 448 333.3 448 320C448 306.7 458.7 296 472 296C485.3 296 496 306.7 496 320zM528 416C528 402.7 538.7 392 552 392C565.3 392 576 402.7 576 416C576 429.3 565.3 440 552 440C538.7 440 528 429.3 528 416zM208 288C216.8 288 224 295.2 224 304V368C224 376.8 216.8 384 208 384C199.2 384 192 376.8 192 368V304C192 295.2 199.2 288 208 288zM232 424C232 437.3 221.3 448 208 448C194.7 448 184 437.3 184 424C184 410.7 194.7 400 208 400C221.3 400 232 410.7 232 424zM128 305.8C132.6 306.6 136.7 307.5 140.1 308.4C148.7 310.7 153.7 319.5 151.5 328C149.2 336.6 140.4 341.6 131.9 339.4C123.9 337.3 113.4 335.5 105.1 336.4C101 336.9 98.76 337.9 97.7 338.6C97.1 339 96.51 339.6 96.18 341.5C95.1 342.5 96.03 343.1 96.07 343.3C96.18 343.4 96.55 343.9 97.56 344.5C101.2 347 107.2 348.9 116.8 351.8L117.5 352C125.4 354.5 136.6 357.8 145.1 363.1C149.8 367.4 154.4 372.2 157.2 378.7C160.1 385.4 160.6 392.5 159.4 399.9C157.4 411.4 151.5 420.3 142.4 425.8C137.5 428.8 132.2 430.4 127.1 431.2V432C127.1 440.8 119.9 448 111.1 448C102.3 448 95.11 440.8 95.11 432V429C87.02 427.2 79.82 424.8 74.94 423.2C66.56 420.4 62.03 411.3 64.82 402.9C67.61 394.6 76.68 390 85.06 392.8C94.52 395.1 106.9 399.8 117.1 399.9C122 399.1 124.7 399.1 125.8 398.4L125.9 398.4C126.3 398.1 127.3 397.6 127.8 394.4C128 393.2 128 392.5 127.1 392.1C127.9 391.7 127.9 391.5 127.8 391.5C127.8 391.4 127.6 390.8 126.2 389.9C122.7 387.3 116.9 385.3 107.5 382.5L105.1 382C98.25 379.7 87.66 376.5 79.58 371C74.89 367.8 70.16 363.3 67.13 356.9C64.04 350.4 63.39 343.3 64.64 336C66.4 325.8 71.63 317.9 79.15 312.5C84.44 308.8 90.36 306.7 95.1 305.5V304C95.1 295.2 103.2 288 111.1 288C120.8 288 127.1 295.2 127.1 304L128 305.8zM96.07 343.3L96.1 343.4C96.1 343.4 96.09 343.4 96.1 343.4C96.1 343.4 96.09 343.3 96.07 343.3zM0 288C0 252.7 28.65 224 64 224H576C611.3 224 640 252.7 640 288V448C640 483.3 611.3 512 576 512H64C28.65 512 0 483.3 0 448V288zM32 448C32 465.7 46.33 480 64 480H576C593.7 480 608 465.7 608 448V288C608 270.3 593.7 256 576 256H64C46.33 256 32 270.3 32 288V448z"/></svg>
